icons/svg/ambulance.svg

﻿<?xml version="1.0" encoding="utf-8"?>
<!DOCTYPE svg PUBLIC "-//W3C//DTD SVG 1.1//EN" "http://www.w3.org/Graphics/SVG/1.1/DTD/svg11.dtd">
<svg xmlns="http://www.w3.org/2000/svg" xmlns:xlink="http://www.w3.org/1999/xlink" version="1.1" baseProfile="full" width="24" height="24" viewBox="0 0 24.00 24.00" enable-background="new 0 0 24.00 24.00" xml:space="preserve">
	<path fill="#000000" fill-opacity="1" stroke-width="0.2" stroke-linejoin="round" d="M 17.9994,18.4981C 18.8274,18.4981 19.4994,17.8261 19.4994,16.9981C 19.4994,16.1701 18.8274,15.4981 17.9994,15.4981C 17.1714,15.4981 16.4994,16.1701 16.4994,16.9981C 16.4994,17.8261 17.1714,18.4981 17.9994,18.4981 Z M 19.4994,9.49807L 16.9994,9.49807L 16.9994,11.9981L 21.4634,11.9981L 19.4994,9.49807 Z M 5.99941,18.4981C 6.82741,18.4981 7.49941,17.8261 7.49941,16.9981C 7.49941,16.1701 6.82741,15.4981 5.99941,15.4981C 5.17141,15.4981 4.49941,16.1701 4.49941,16.9981C 4.49941,17.8261 5.17141,18.4981 5.99941,18.4981 Z M 19.9994,7.99807L 22.9994,11.9981L 22.9994,16.9981L 20.9994,16.9981C 20.9994,18.6551 19.6564,19.9981 17.9994,19.9981C 16.3424,19.9981 14.9994,18.6551 14.9994,16.9981L 8.99941,16.9981C 8.99941,18.6551 7.65641,19.9981 5.99941,19.9981C 4.34241,19.9981 2.99941,18.6551 2.99941,16.9981L 0.99941,16.9981L 0.99941,5.99807C 0.99941,4.89307 1.89441,3.99807 2.99941,3.99807L 16.9994,3.99807L 16.9994,7.99807L 19.9994,7.99807 Z M 8,6L 8,9L 5,9L 5,11L 8,11L 8,14L 10,14L 10,11L 13,11L 13,9L 10,9L 10,6L 8,6 Z "/>
</svg>

<svg xmlns="http://www.w3.org/2000/svg" version="1.1" baseProfile="full" width="24" height="24" viewBox="0 0 24.00 24.00" xml:space="preserve"><path fill="#000" fill-opacity="1" stroke-width=".2" stroke-linejoin="round" d="M18 18.498c.827 0 1.5-.672 1.5-1.5s-.673-1.5-1.5-1.5c-.83 0-1.5.672-1.5 1.5s.67 1.5 1.5 1.5zm1.5-9H17v2.5h4.463l-1.964-2.5zm-13.5 9c.827 0 1.5-.672 1.5-1.5s-.673-1.5-1.5-1.5c-.83 0-1.5.672-1.5 1.5s.67 1.5 1.5 1.5zm14-10.5l3 4v5h-2c0 1.657-1.344 3-3 3-1.658 0-3-1.343-3-3H9c0 1.657-1.344 3-3 3-1.658 0-3-1.343-3-3H1v-11c0-1.105.894-2 2-2h14v4h3zM8 6v3H5v2h3v3h2v-3h3V9h-3V6H8z"/></svg>
